X: 83
T: The girls of Banbridge
C: anon.
O: Ireland
B: Francis O'Neill: "The Dance Music of Ireland" (1907) no. 83
R: Double jig
Z: Transcribed by Frank Nordberg - http://www.musicaviva.com
F: http://www.musicaviva.com/abc/tunes/ireland/oneill-1001/oneill-1001-008
3.abc
M: 6/8
L: 1/8
K: D
B|AFA dcB|BAG FED|FAD FED|CDE EFG|AFA dcB|BAG FED|(f<a)f gec|ded d2:|
|:B|AFA dfa|agf efg|(f<a)g fed|cde e2A|AFA dfa|agf efg|(f<a)f gec|ded d2:
|
W:
W:
W: From Musica Viva - http://www.musicaviva.com
W: the Internet center for free sheet music downloads.


